src/assets/icons/Techuser-White.svg

<svg width="24" height="25" viewBox="0 0 24 25" fill="none" xmlns="http://www.w3.org/2000/svg">
<g id="Techuser-White">
<g id="Group">
<path id="Vector" d="M15 12.03C17.21 12.03 19 10.24 19 8.03C19 5.82 17.21 4.03 15 4.03C12.79 4.03 11 5.82 11 8.03C11 10.24 12.79 12.03 15 12.03ZM15 14.03C12.33 14.03 7 15.37 7 18.03V20.03H23V18.03C23 15.37 17.67 14.03 15 14.03Z" fill="white"/>
<path id="Vector_2" d="M8.72249 5.38495L8.09839 4.85863C7.90623 4.69639 7.62289 4.7043 7.44064 4.87644L7.0959 5.19896C6.80468 5.05848 6.4956 4.95955 6.1766 4.90216L6.07956 4.42729C6.03003 4.18194 5.80218 4.01177 5.5525 4.03156L4.73821 4.10081C4.48857 4.12258 4.29243 4.32638 4.2845 4.57767L4.26867 5.06046C3.95561 5.17324 3.66041 5.32757 3.39096 5.52148L2.97888 5.24843C2.76882 5.10992 2.48949 5.14949 2.32704 5.34142L1.80003 5.96865C1.63755 6.16058 1.64547 6.44353 1.81782 6.62556L2.17843 7.0094C2.05359 7.29037 1.96443 7.58521 1.91294 7.88792L1.39782 7.99279C1.15214 8.04225 0.981752 8.2698 1.00156 8.51913L1.07091 9.33235C1.0927 9.58166 1.29677 9.77754 1.54839 9.78546L2.10512 9.80325C2.20621 10.0684 2.33893 10.3197 2.49939 10.5551L2.18836 11.0241C2.04967 11.2338 2.08929 11.5128 2.28145 11.675L2.90555 12.2014C3.09775 12.3636 3.38105 12.3557 3.56335 12.1836L3.97148 11.8017C4.23895 11.9263 4.52027 12.0193 4.80953 12.0747L4.92248 12.6327C4.97202 12.8781 5.19986 13.0482 5.4495 13.0284L6.26379 12.9592C6.51343 12.9374 6.70958 12.7336 6.7175 12.4823L6.73533 11.9362C7.03252 11.8313 7.31384 11.6889 7.57338 11.5128L8.02315 11.8096C8.23316 11.9481 8.5125 11.9085 8.67498 11.7166L9.20199 11.0933C9.36444 10.9014 9.35651 10.6184 9.18416 10.4364L8.82157 10.0526C8.95434 9.77161 9.05144 9.47481 9.10687 9.17008L9.60219 9.06917C9.84786 9.0197 10.0182 8.79216 9.99844 8.54283L9.92909 7.72961C9.9073 7.4803 9.70323 7.28441 9.45161 7.2765L8.95432 7.26067C8.85127 6.97179 8.71258 6.69875 8.54023 6.44547L8.81165 6.03787C8.95432 5.82817 8.91469 5.5472 8.72249 5.38495ZM5.65357 10.0862C4.77389 10.1614 3.9972 9.50645 3.92391 8.62795C3.84861 7.74943 4.50444 6.97379 5.38408 6.90058C6.26375 6.82539 7.04044 7.48034 7.11373 8.35884C7.18904 9.23737 6.5332 10.013 5.65357 10.0862Z" fill="white"/>
</g>
</g>
</svg>

<?xml version="1.0" encoding="utf-8"?>
<!-- Generator: Adobe Illustrator 21.0.0, SVG Export Plug-In . SVG Version: 6.00 Build 0)  -->
<svg version="1.1" id="Layer_1" xmlns="http://www.w3.org/2000/svg" xmlns:xlink="http://www.w3.org/1999/xlink" x="0px" y="0px"
	 viewBox="0 0 24 25" style="enable-background:new 0 0 24 25;" xml:space="preserve">
<style type="text/css">
	.st0{fill:#FFFFFF;}
</style>
<path class="st0" d="M15,12c2.2,0,4-1.8,4-4s-1.8-4-4-4s-4,1.8-4,4S12.8,12,15,12z M15,14c-2.7,0-8,1.3-8,4v2h16v-2
	C23,15.4,17.7,14,15,14z"/>
<path class="st0" d="M8.7,5.4L8.1,4.9c-0.2-0.2-0.5-0.2-0.7,0L7.1,5.2C6.8,5.1,6.5,5,6.2,4.9L6.1,4.4C6,4.2,5.8,4,5.6,4L4.7,4.1
	c-0.2,0-0.4,0.2-0.5,0.5l0,0.5C4,5.2,3.7,5.3,3.4,5.5L3,5.2C2.8,5.1,2.5,5.1,2.3,5.3L1.8,6c-0.2,0.2-0.2,0.5,0,0.7L2.2,7
	C2.1,7.3,2,7.6,1.9,7.9L1.4,8C1.2,8,1,8.3,1,8.5l0.1,0.8c0,0.2,0.2,0.4,0.5,0.5l0.6,0c0.1,0.3,0.2,0.5,0.4,0.8L2.2,11
	c-0.1,0.2-0.1,0.5,0.1,0.7l0.6,0.5c0.2,0.2,0.5,0.2,0.7,0L4,11.8c0.3,0.1,0.5,0.2,0.8,0.3l0.1,0.6C5,12.9,5.2,13,5.4,13L6.3,13
	c0.2,0,0.4-0.2,0.5-0.5l0-0.5c0.3-0.1,0.6-0.2,0.8-0.4L8,11.8c0.2,0.1,0.5,0.1,0.7-0.1l0.5-0.6c0.2-0.2,0.2-0.5,0-0.7l-0.4-0.4
	C9,9.8,9.1,9.5,9.1,9.2l0.5-0.1C9.8,9,10,8.8,10,8.5L9.9,7.7c0-0.2-0.2-0.4-0.5-0.5L9,7.3C8.9,7,8.7,6.7,8.5,6.4L8.8,6
	C9,5.8,8.9,5.5,8.7,5.4z M5.7,10.1C4.8,10.2,4,9.5,3.9,8.6C3.8,7.7,4.5,7,5.4,6.9C6.3,6.8,7,7.5,7.1,8.4C7.2,9.2,6.5,10,5.7,10.1z"
	/>
</svg>
